X:1
T:Girate occhi
T:Angelo Notari
T:Source : Musiche nuove a uno, due et tre voci +BC---London---W.Hole---1613. Editor : André Vierendeels (24/11/16)
T:Notes : Original clefs : C1, C1 F4 Editorial accidentals above the staff Note values have been halved Original in manuscript
T:Girate occhi
T:©
T:©
T:©
T:©
C:Angelo Notari
Z:©
%%score [ 1 2 ] 3
L:1/8
Q:1/4=99
M:6/4
K:F
V:1 treble nm="Soprano 1" snm="S 1"
V:2 treble nm="Soprano 2" snm="S 2"
V:3 bass nm="MusicXML Part"
V:1
 z2 z2 c2 dc de f2 | _e2 d3 d c4 c2 | B4 A2 G4 G2 | AG AF G2 G2 A2 G2 | A4 =B2 c3 c c2 | %5
w: Gi- ra- * * * *|te'oc- chi gi- ra- te'A|miei, che tan- to|prie- * ga _ no gli sguar- di|che non pie- ga- no|
w: In sul _ _ _ _|ma- tin d'A- pri- le,|quann- do'i nem- bi|tran- * * * * quil- la- no,|fres- che ro- se sfa-|
w: Ver- gi- * * * *|ni per- e- gri- ne,|co- me lor s'av-|vi- * * * vi- ci- na- no,|co- si lie- te de-|
 d2 _e2 d2 d4 c2 |[M:3/4] d4 d2 |:[M:6/4] d4 d2 c4 d2 | B4 A2 G3 G G2 | z6 f2 ed cB | c6 d2 cB AG | %11
w: giam- mai ver- so pie-|ta- te,|che _ se- da|lor si tal- go- no|Oc- * * * *|chi, oc- * * * *|
w: * * * vil- li-|a- no,|d'un ver- mi- glio|gen- * * ti- le,|e dol- * ce _|o- dre- a- * * *|
w: * * sti- na- no|far- me|co- ro- no al|cri- * * * me,|al cri- * me 'on-|de'in- ca te- * na- *|
[M:4/4] A4 f4- | f4 _edcB | c6 c2 | B4 d4- | d4 cBAG | A6 A2 | G4 c4- | c4 BAGF | G6 G2 | %20
w: chi, oc-|* chi ra- gion si|dal- go-|no, oc-|* chi ra- gion si|dal- go-|no oc|_ chi ra- gion si|dal- go-|
w: no che|_ zef- fi- ro'in- a-|mo- ra-|no, che|_ zef- fi- ro'in- a-|mo- ra-|no, che|_ zef- fi- ro'in- a-|mo- ra-|
w: no i|_ cor,- ch'a mor- te|me- na|no i|_ cor, ch'a mor- tr|me- na-|no, i|_ cor, ch'a mor- te|me- na-|
 !fermata!F8 :| %21
w: no.|
w: no.|
w: no.|
V:2
 z2 z2 A2 BA Bc d2 | c2 B2 B2 A4 A2 | G4 F2 F4 E2 | FE FD E2 E2 F2 E2 | F4 D2 E3 E E2 | %5
w: Gi- ra- * * * *|te'oc- chi gi- ra- te'A|miei, che tan- to|prie- * ga _ no gli sguar- di|che non pie- ga- no|
w: In sul _ _ _ _|ma- tin d'A- pri- le,|quan- do'i nem- bi|tran- * * * * quil- la- no,,|fres- ch ro- se sfa-|
w: Ver- gi- * * * *|ni per- e- gri- ne,|co- me lor s'av-|vi- * * * vi- ci- na- no,|co- si lie- to de-|
 G2 G2 ^F2 G4 G2 |[M:3/4] ^F4 F2 |:[M:6/4]"^-natural" F4 B2 A4 B2 | G4 F2 E3 E E2 | d2 cB AG A6 | %10
w: giam- mai ver- so oie-|ta- te,|che _ se da|lor si tal- go- no|oc- * * * * chi,|
w: * vil- * * li|a- no,|d'un ver- mi- glio|gen- * * ti- le,|e dol- * ce _ o-|
w: * * sti- na- no|far- me|co- ro- no al|cri- * * * me,|al cri- * me'on- * de'in|
 _e2 dc BA B4 z2 |[M:4/4] f3 e d4- | d4 cBAG | A2 B4 A2 | B4 B4- | B4 AGFE | ^F2 G4 F2 | G4 z4 | %18
w: oc- * * * * chi,|oc- * *|* chi ra- gion si|dal- * go-|no, oc-|* chi ra- gion si|dal- * go-|no,|
w: dre- a- * * * no,|che _ _|_ zef- fi- ro'in- a-|mo- * ra-|no, che|_ zef- fi- ro'in- a-|mo- * ra-|no,|
w: ca- te- * na- * no,|i _ _|_ cor,- ch'a mor- te|me- * na-|no, i|_ cor, ch'a mor- te|me- * na-|no,|
 A4 GFED | E2 F4 E2 | !fermata!F8 :| %21
w: oc- chi ra- gion si|dal- * go-|no.|
w: che zef- fi- ro'in- a-|mo- * ra-|no.|
w: i cor, ch'a mor- te|me- * na-|no.|
V:3
"^BC" z2 z2 F,2 B,,6 | C,2 D,2 E,2 F,4 F,,2 | G,,4 A,,2 B,,4 C,2 | F,,4 C,2 C,2 F,,2 C,2 | %4
 F,,4 G,,2 C,3 C, C,2 | B,,2 C,2 D,2 _E,4 E,2 |[M:3/4] D,6 |:[M:6/4] D,4 B,,2 F,4 D,2 | %8
 _E,4 F,2 C,3 C, C,2 | G,,6 D,4 F,2 | C,6 G,,6 |[M:4/4] D,8 | G,8 | F,8 | B,,8 | _E,8 | D,8 | %17
 G,,4 A,,4 | D,8 | C,8 | !fermata!F,,8 :| %21

